X:1
T:Title
%%score { ( 1 3 ) | 2 }
L:1/8
Q:1/4=144
M:6/4
K:C
V:1 treble nm="Grand Piano"
V:3 treble 
V:2 bass 
V:1
 [DB]2 [CA]2 [B,G]2 [B,D]2 [B,E]4 | [B,D]2 [B,E]2 [B,G]2 [C^F]6 | [Ec]2 B2 A2 E2 ^F4 | %3
w: Charles~H.~Gabriel * * * *|||
 [CE]2 [B,D]2 [Ec]2 [DB]6 | [DB]2 [CA]2 [B,G]2 D2 [Gd]4 | [^Ge]2 B2 d2 c6 | %6
w: |||
 [Ec]2 [EG]2 [_EA]2 [DB]4 [CDA]2 | [B,DG]12 | d2 d2 d2 d4 G2 | ^F12 | d2 d2 d2 [^Fd]4 [FA]2 | B12 | %12
w: ||||||
 B2 A2 G2 c6 | z6 [^Fd]6[K:bass] | [Gd]2 [FG]2 [Ec]2 [DB]4 [CDA]2 | [B,DG]12 |] %16
w: ||||
V:2
 [G,,G,]2 [G,,G,]2 [G,,D,]2 [G,,G,]2 [G,,G,]4 | [G,,G,]2 [G,,G,]2 [G,,G,]2 [D,A,]6 | %2
 [D,^F,]2 [D,F,D]2 [D,F,C]2 [D,F,C]2 [D,A,C]4 | [G,,G,]2 [G,,G,]2 [G,,G,]2 [G,,G,]6 | %4
 [G,,G,]2 [G,,G,]2 [G,,D,]2 [G,B,]2 [F,B,]4 | [E,B,]2 [E,^G,E]2 [G,B,E]2 [A,E]6 | %6
 [C,G,]2 [C,G,]2 [C,G,]2 [D,G,]4 D,2 | G,,12 | [G,B,G]6 [G,B,G]4[K:bass] [G,B,D]2 | %9
 [A,CD]4 [D,C]2 .[A,C]6 | [D,C]6 [D,C]4 [D,D]2 | [G,DG]4 [G,D]2 .[G,D]6 | %12
 [G,D]2 [G,C]2[K:bass] [F,G,B,]2 [E,G,C]6 | [A,,A,]2 [B,,A,]2 [^C,A,]2 .[D,A,]6 | %14
 [B,,G,]2 [B,,G,]2 [C,G,]2 [D,G,]4 D,2 | G,,12 |] %16
V:3
 x12 | x12 | x12 | x12 | x12 | x12 | x12 | x12 | x12 | z4 D2 .D6 | ^F6 z6 | z4 G2 .G6 | x12 | %13
 [G^c]2 [GB]2 [GA]2 z4[K:bass] C,2 | x12 | x12 |] %16

